X:1
T:12 Deutsche und Italiänische Romantische Gesänge
T:Frühlingslied
T:12 Deutsche und Italiänische Romantische Gesänge
T:1. Frühlingslied
T:Louise Reichardt
T:Novalis (Georg Philipp Friedrich Freiherr von Hardenberg) 
T:Uns barg der Wald vor Sonnenschein Das ist der Frühling! fiel mir ein Und kurz ich sah dass jetzt auf Erden Die Menschen sollten Götter werden. Nun wusst ich wohl wie mir geschah Und wie das wurde was ich sah.
T:OpenScore (CC0)
T:OpenScore (CC0)
C:Louise Reichardt
Z:(Novalis)
Z:OpenScore (CC0)
%%score 1 { 2 | 3 }
L:1/8
Q:1/4=100
M:6/8
K:F
V:1 treble nm="Voice"
V:2 treble nm="Piano"
V:3 bass 
V:1
"^Lieblich"!mf! F A B |: c2 F B2 d | c2 z f e d | c2 d G2 c | A2 z A A A | d2 d e2 e | %6
w: Es färb- te|sich die Wie- se|grün, und um die|He- cken sah ich's|blühn, tag- täg- lich|sah ich neu- e|
 f e d c>d c | c>f e/d/ c2 c | d c z ||1O"^[ last time ]" c c c | _e3 e d A | B2 z G d c | %12
w: Kräu- ter, mild war * die|Luft * der * Him- mel|hei- ter,|ich wuss- te|nicht wie mir ge-|schah und wie das|
 c2 F A2 G | F2 z F A B :|2"^Zur letzten Strophe" c A F | _e3 e d ^c | %16
w: wur- de was ich|sah. Und im- mer|nun wusst' ich|wohl wie mir ge-|
 d2 z[Q:1/4=95] d e[Q:1/4=92] f |[Q:1/4=88] =c2[Q:1/4=83] F[Q:1/4=80] A2[Q:1/4=78] G | %18
w: schah und wie das|wur- de was ich|
 !fermata!F2 z |] %19
w: sah.|
V:2
 z2 z |:!mf! A,/C/F/C/A,/C/ B,/D/F/D/B,/D/ | A,/C/F/C/A,/C/ A,/C/F/C/A,/C/ | %3
 A,/C/F/C/A,/C/ B,/C/E/C/B,/C/ | A,/C/F/C/A,/C/!<(! A,/^C/G/C/A,/C/ | %5
 A,/D/F/D/A,/D/ A,/^C/G/C/A,/C/ | A,/D/F/D/A,/D/ =C/G/B/G/C/!<)!G/ |!f! C/F/A/F/C/F/ C/E/G/E/C/E/ | %8
 C/F/A/F/C/F/ ||1!>(! C/_E/A/E/C/E/ | C/_E/A/E/C/E/ C/D/A/D/C/D/ | %11
 B,/D/G/D/B,/D/!>)!!p! B,/C/G/C/B,/C/ | A,/C/F/C/A,/C/ B,/C/E/C/B,/C/ | %13
 A,/!<(!C/F/C/A,/C/ A,/C/F/C/A,/C/!<)! :|2!f! C/F/A/F/C/F/ | _E/F/c/F/E/F/ E/F/c/F/E/F/ | %16
 D/F/B/F/D/F/!>(! D/F/B/F/D/F/ | C/F/A/F/C/F/ B,/E/G/E/B,/E/!>)! |!p! !fermata![A,CF]2 z |] %19
V:3
 z2 z |: F,2 z F,2 z | F,2 z F,2 z | F,2 z C,2 z | F,2 z E,2 z | D,2 z A,,2 z | D,2 z (E,3 | %7
 F,2) z (B,3 | A,2) z ||1 (G,3 | ^F,3) (F,3 | G,2) z (E,3 | F,2) z C,2 z | F,,2 z F,2 z :|2 A,2 z | %15
 A,2 z A,2 z | B,2 z B,,2 z | C,2 z C,,2 z | !fermata!F,,2 z |] %19

